svg/fluentui-system-icons/ic_fluent_number_circle_4_20_regular.svg

<svg width="20" height="20" viewBox="0 0 20 20" fill="none" xmlns="http://www.w3.org/2000/svg">
<path d="M3 10C3 6.13401 6.13401 3 10 3C13.866 3 17 6.13401 17 10C17 13.866 13.866 17 10 17C6.13401 17 3 13.866 3 10ZM10 2C5.58172 2 2 5.58172 2 10C2 14.4183 5.58172 18 10 18C14.4183 18 18 14.4183 18 10C18 5.58172 14.4183 2 10 2ZM11.9949 6.30866C11.9946 5.57105 11.0414 5.27697 10.6255 5.88616L7.09225 11.0617C6.82037 11.46 7.10557 12 7.58779 12H10.9977L10.9984 13.5002C10.9986 13.7764 11.2225 14.0001 11.4987 14C11.7748 13.9999 11.9986 13.7759 11.9984 13.4998L11.9977 12H13C13.2761 12 13.5 11.7761 13.5 11.5C13.5 11.2239 13.2761 11 13 11H11.9972L11.9949 6.30866ZM10.9953 7.11805L10.9972 11H8.34518L10.9953 7.11805Z" fill="#212121"/>
</svg>

<svg xmlns="http://www.w3.org/2000/svg" width="20" height="20"><path d="M3 10a7 7 0 1 1 14 0 7 7 0 0 1-14 0Zm7-8a8 8 0 1 0 0 16 8 8 0 0 0 0-16Zm1.995 4.309c0-.738-.954-1.032-1.37-.423l-3.533 5.176a.6.6 0 0 0 .496.938h3.41v1.5a.5.5 0 0 0 1 0V12H13a.5.5 0 0 0 0-1h-1.003l-.002-4.691Zm-1 .809L10.997 11H8.345l2.65-3.882Z"/></svg>
